X:1
T:The Well-Tempered Clavier Part II Fuga XVIII
T:BWV 887
T:J. S. Bach
%%score { ( 1 3 ) | 2 }
L:1/8
M:6/8
K:B
V:1 treble nm="Harp"
V:3 treble 
V:2 bass 
V:1
 GAB AdD | GBA BAG | ABc BeG | AcB cBA | B2 ^B c3- | c3 ^B3 | c2 ^^c d3- | d3 ^^c3 | d c2- cA^B | %9
 c B2- BGA | B3- BAc | ^^FdG c3- | ced cBA | B2 d g3- | g2 ^^f g2 b | c2 d edc | d3 c3 | B3 A3 | %18
 G z z z3 | z z d d2 ^^c | d2 z z3 | z z e d2 c | B2 G A2 ^B | cGc- cA=c | e3 d3- | dc=a- a^^fg | %26
 c6 | B6 | A3- A2 ^^c | d^ef- f=fg | ^^c^eA d3- | d3 ^^c3 | d2 z G2 z | F2 z z3 | z6 | z6 | %36
 z3 z z E | F=AG AGF | EG/F/G/A/ B3- | B3 A3 | B3 c3 | d3 edc | Bdf- fd^e- | eAd- d^B^^c | %44
 d^ef eaA | df^e fed | ^efg fbd | ^egf gfe | f2 ^^f g2 ^f | e2 ^e f2 =e | d3 c3- | c2 B2 Ac | %52
 ^^F2 A- ADG- | G2 c ^^F3 | G2 D CB,A, | B,2 z z z B | cde dcB | c A2- A2 d | d6- | d3 ^^c3 | %60
 d2 d ^^c2 ^c | ^B2 =B A2 ^B | c2 ^^c d3- | d3 d/4^^c/4d/4c/4d/4c/4d/4c/4d/4c/4d/4c/4 | d2 c B2 A | %65
 G2 c- cA^B | cGA BcB | Adc Bed | cde Adc | Bcd Gcd | e3 d3 | c3 B g2 | fed- dc/^B/c | d6- | %74
 dGc- cB/A/B | A6- | A2 G c3 | B3 A3- | AGg ^^f2 ^f | ^e2 =e d2 ^e | f2 ^^f g3- | g3 ^^f3- | %82
 f^e^^f g2 ^^g | a6- | afg a3- | a g2- g^ef | ^e2 f g3- | g f3 de | d2 c B3 | A2 ^B c/d/ed | %90
 G3 c3- | cBc d/c/B/A/B/e/ | A2 z e2 a | d2 g c>ed/c/ | B3- BA/G/^^F/^E/ | DdG- G^^Fc | B2 z z3 | %97
 z6 | z6 | z6 | z6 | z6 | d^ef eaA | df^e fed | ^efg fbd | ^egf gfe | f3 ^e2 =e | d3 ^^c2 ^c | %108
 Bdg- gf/e/f- | fBe- ed/c/d | cde d2 =d | c2 =c B2 ^c | =d2 ^d e3- | e3 d3 | e2 G A2 ^B | %115
 c2 =A F2 G | E2 z z3 | z3 z z B- | BA^B c3- | c^B^^c d3- | d^^cd ^e3- | ed/^^c/ d2 ^c/B/c- | %122
 cdc Bed | cde Adc | B2 z z3 | z z C F2 G- | GFE DGB | ^E3 A3- | A2 G- G2 ^^F | G2 z z dc | %130
 dcB cBA | B3- BAG | A3- AG^^F | G4 ^E^^F | GAB AdD | GBA BAG | ABc BeG | AcB cBA | Bcd- dcB | %139
 A^eA A3- | Aed d3- | dcB{d} cBA | G6 |] %143
V:2
 z6 | z6 | z6 | z6 | z6 | z6 | z6 | z6 | z6 | z6 | z6 | z6 | G,A,B, A,DD, | G,B,A, B,A,G, | %14
 A,B,C B,EG, | A,CB, CB,A, | B,2 G, ^E,2 ^^F, | G,2 E, C,2 D, | E,2 ^E, F,3- | F,3 ^E,3 | %20
 F,2 ^^F, G,3- | G,3 ^^F,3 | G,3 F,3 | E,3 D,3 | C,G, C2 A,^B, | C3 B,3- | B,A,G, ^^F,A,D, | %27
 G,2 G,, G,3- | G,F,^E, D,F,A,, | %29
 C,/4B,,/4C,/4B,,/4C,/4B,,/4C,/4B,,/4C,/4B,,/4C,/4B,,/4 C,/4B,,/4C,/4B,,/4C,/4B,,/4C,/4B,,/4C,/4B,,/4A,,/4B,,/4 | %30
 A,,6 | z6 | D,^E,F, E,A,A,, | D,F,^E, F,E,D, | ^E,F,G, F,B,D, | ^E,G,F, G,F,E, | F,E,D, E,=A,C, | %37
 D,2 z G,,2 z | C,E,C, G,2 F, | E,F,G, C,2 F, | B,,F,B,- B,G,A,- | A,D,G,- G,^E,^^F, | %42
 G,2 A, B,2 ^^C, | D,2 B,, G,,2 A,, | D,3 z z F, | B,3 z z ^B, | C2 B, A,2 =A, | G,B,D, ^^C,A,,C, | %48
 D,2 z G,,2 z | C,2 z F,,2 z | B,,D,A,- A,^^F,A, | B,,2 z C,2 z | D,2 ^^F,, G,,2 B,, | %53
 C,E,A,, D,2 D,, | G,,A,,B,, A,,D,D,, | G,,B,,A,, B,,A,,G,, | A,,B,,C, B,,E,G,, | %57
 A,,C,B,, C,B,,A,, | B,,D,^^F,, G,,B,,D,, | %59
 F,,/4E,,/4F,,/4E,,/4F,,/4E,,/4F,,/4E,,/4F,,/4E,,/4F,,/4E,,/4 F,,/4E,,/4F,,/4E,,/4F,,/4E,,/4F,,/4E,,/4F,,/4E,,/4D,,/4E,,/4 | %60
 D,,2 D, ^E,G,^^F, | G,D,G,- G,F,/^E,/F, | ^E,A,G, F,B,A, | G,A,B, ^E,A,G, | ^^F,G,A, D,G,^F, | %65
 E,F,E, D,E,D, | C,2 C,, G,,^^F,,G,, | D,,2 z z3 | z6 | z6 | z z C ^B,2 =B, | A,2 =A, G,2 ^A, | %72
 B,2 ^B, C3- | C3 ^B,3 | C2 B, A,2 G, | F,2 E, D,2 C, | B,,F,B,- B,A,/G,/A,- | %77
 A,D,G,- G,^^F,/^E,/F, | G,2 E, D,3 | A,G,^^F, G,2 ^^C, | D,2 A,, B,,2 ^B,, | C,2 ^^C, D,2 ^^D, | %82
 ^E,3 z E,D, | C,C^B, A,AG | FD^E F2 ^^F | GG,A, B,2 ^B, | CC,D, E,2 ^E, | F,F,,G,, =A,,2 ^A,, | %88
 B,,2 C, D,2 ^E, | F,2 G, A,2 ^B, | CC,D, ^E,2 ^^F, | G,2 A, B,/C/DC | D6- | D6- | D2 z z3 | z6 | %96
 G,,A,,B,, A,,D,D,, | G,,B,,A,, B,,A,,G,, | A,,B,,C, B,,E,G,, | A,,C,B,, C,B,,A,, | %100
 B,,D,G,- G,^^F,/^E,/F, | G,B,D- D^^C/^B,/C | D2 D, A,2 ^^F, | G,2 ^^C, D,3 | A,3- A,G,F, | %105
 G,3 A,3 | D,2 B,, G,,2 A,, | B,,2 D, ^E,2 ^^F, | G,2 B, C2 D | E2 C A,2 ^B, | C^B,A, =B,A,G, | %111
 =A,2 D, E,2 E,, | B,,2 ^B,, C,2 G, | =A,2 C F,2 B, | E,B,E- ED/C/D- | DG,C- C^B,/A,/B, | %116
 CC,C ^B,2 =B, | A,2 =A, G,2 C | F,E,D, C,B,,A,, | G,,G,A, B,CB, | A,A,,^B,, ^^C,B,,C, | %121
 D,G,F, ^E,A,G, | ^^F,D,F, G,3- | G,3 ^^F,3 | G,2 G,, ^^F,,2 ^F,, | ^E,,2 =E,, D,,2 ^E,, | %126
 F,,2 ^^F,, G,,3- | G,,3 ^^F,,D,C, | D,C,B,, C,B,,A,, | B,,A,,G,, D,3- | D,2 G,, E,3- | %131
 E,D,^^C, D,3- | D,6- | D,C,B,, C,B,,A,, | B,,C,/B,,/A,,/G,,/ D,,3- | D,,2 C,, G,,2 C,, | %136
 F,,2 D,, G,,2 B,, | E,2 C, A,,2 D, | G,,2 B,, E,,E,D, | ^^C,3- ^^C,A,,^B,, | C,3- C,B,,A,, | %141
 B,,A,,G,, D,2 D,, | G,,6 |] %143
V:3
 x6 | x6 | x6 | x6 | D^EF EAA, | DF^E FED | ^EFG FBD | ^EGF GFE | F2 ^^F G2 ^F | E2 ^^E F2 =E | %10
 DGG, C3- | C2 B, A,G^^F | G3- G2 ^^F | G2 z z z B | cde dcB- | BAG F3- | FFB- BGA- | ADG G^E^^F | %18
 GAB AdD | GBA BAG | ABc BeG | AcB cBA | BB,E- ECD |[I:staff +1] G,3[I:staff -1] z3 | z z =A F2 G | %25
[I:staff +1] E3 D3 |[I:staff -1] ^E^^FG A3- | AG^F ^EGD | ^^CD^E F3- | FGA G3- | G3 FAD | %31
 ^EFG- GAE | F^ED- D^^CE- | ED^^C D2 B | ^C2 B AGF | GB,A, B,GB, | A,2 ^B, C3- | C3 ^B,3 | %38
 C2 z z DG | CED EDC | D2 G E2 ^^F | B3 A3 |[I:staff +1] D2 ^^C D2[I:staff -1] G | F3 ^E3 | %44
[I:staff +1] D^^C^B, C F2- | FD^^C D G2- | G2 ^E CDF |[I:staff -1] B3 A3- | A c2- cA^B | %49
 c B2- BGA | B3 A3- | ADG E3- | EDC B,3 | A,CE- EDC | B,A,G,- G,2 ^^F, | G,2 D G3- | G2 ^^F G3- | %57
 G2 G ^^F2 z | z z A B2 ^^F | GAB- BAG- | G^^F z z3 | x6 | x6 | x6 | x6 | z z G ^^F2 ^F | %66
 ^E2 =E D2 ^E | F2 ^^F G3- | G3 G/4^^F/4G/4F/4G/4F/4G/4F/4G/4F/4G/4F/4 | G2[I:staff +1] ^F E2 D | %70
 C[I:staff -1]E=A- AG/F/G- | G[I:staff +1]CF- FE/D/E | DGF E[I:staff -1]=AG | FG=A DGF | E6- | %75
 ECF- FE/D/E | D3 E3 | D3 C3 | B,2[I:staff +1] C- CA,^B, | C3- C B,2- | %80
 =B, A,2[I:staff -1] z[I:staff +1] D,F,- | F,^E,B, B,A,/G,/A,/^^F,/ | G,2 ^B, ^E2[I:staff -1] z | %83
 z A^B c2 ^^c | d3- dd^c | ^B2 c d3- | d c2- cAB | A2 B c3- | cBA- AGG- | G F2- F3- | %90
 F^E^^F G/A/BA | D3 G3- | G^^Fd- d c2- | c B2- B A2- | A[I:staff +1]G/F/E/D/ C3- | %95
 C2 B, A,/G,/A,C, | G,2[I:staff -1] G ^^F2 ^F | ^E2 =E D2 ^E | F2 ^^F G3- | G3 ^^F3 | GBD EDC | %101
 B,/D/GF ^EAG | F2[I:staff +1] D ^^C2 ^C | ^B,2 =B, A,2 ^B, | C2 ^^C D3- | D3 ^^C3 | %106
 D[I:staff -1]Ad- dc/B/c- | cFB- BA/G/A | B3 A2 =A | G3 ^^F2 ^F | EFG FB[I:staff +1]B, | %111
[I:staff -1] EGF GFE | FG=A GcE | F=AG AGF | G2 G ^^F2 ^F | ^E2 =E D3- | DC=A- AG/F/G- | %117
 GCF- FE/D/E | F3- F^E^^F | G3- G^^F^^G | A3- A2 G | F z z z z A |[I:staff +1] D3- DCB, | %123
 A,B,C D2 D, | G,[I:staff -1]A,B, A,D[I:staff +1]F, |[I:staff -1] G,B,A, B,A,G, | %126
 A,B,C B,E[I:staff +1]G, |[I:staff -1] A,CB, CB,A, | B,3 A,DC | DCB, C[I:staff +1]B,A, | %130
 B,A,G, A,G,^^F, | G,3- G,^CB, | CB,A, B,3- | B,3 A,3 | D,2[I:staff -1] G ^^F2 ^F | ^E2 =E D2 ^E | %136
 F2 ^^F G3- | G3 ^^F3 | G6- | G3- G^^F^E | ^^F6 | G3- G2 ^^F | G6 |] %143

